assets/Man factory worker/Medium-Dark/Flat/man_factory_worker_flat_medium-dark.svg

<svg width="32" height="32" viewBox="0 0 32 32" fill="none" xmlns="http://www.w3.org/2000/svg">
<path d="M8 18.016C8.89275 17.2788 9.9037 16.6797 11 16.2513L15 16L19 16.248C20.0965 16.6756 21.1074 17.2742 22 18.0111L23.5 24L22 30H8L6.5 24L8 18.016Z" fill="#0084CE"/>
<path d="M15 19.35L11.88 21.54C11.51 21.8 11 21.54 11 21.08V16.2513C12.2415 15.7662 13.5924 15.5 15.005 15.5C16.4144 15.5 17.7617 15.765 19 16.248V21.08C19 21.54 18.49 21.8 18.12 21.54L15 19.35Z" fill="#0074BA"/>
<path d="M22 18.0111V30H26V26.5C26 23.0805 24.443 20.0279 22 18.0111Z" fill="#0074BA"/>
<path d="M8 30V18.016C5.55764 20.0328 4 23.0832 4 26.5V30H8Z" fill="#0074BA"/>
<path d="M15.8959 19.3457L15.2663 19.8997C15.1114 20.0334 14.8886 20.0334 14.7337 19.8997L14.1041 19.3457C13.4068 18.7248 13 17.8364 13 16.9099V13.9582C13.0097 12.8788 13.9007 12 15.0048 12C16.109 12 17 12.8788 17 13.9678V16.9194C16.9903 17.846 16.5932 18.7248 15.8959 19.3457Z" fill="#E6E6E6"/>
<path d="M15 18C13.8932 18 13 17.0345 13 15.8381V13.1514C13 11.9655 13.8932 11 15 11C16.1068 11 17 11.9655 17 13.1619V15.8486C16.9903 17.0345 16.0971 18 15 18Z" fill="#8B5C56"/>
<path d="M26 23C26.55 23 27 23.4103 27 23.9119V26H25V23.9119C25.01 23.4103 25.45 23 26 23Z" fill="#8B5C56"/>
<path d="M26.71 14.92L26 14.21L24.58 15.63C24.2 16.01 23.99 16.52 23.99 17.05V23.59H24.99V16.85C24.99 16.71 25.04 16.58 25.14 16.48L26.71 14.92Z" fill="#D3D3D3"/>
<path d="M27.76 15.04L28.23 13.24C28.31 12.92 28.02 12.63 27.7 12.71L25.89 13.18C25.87 13.19 25.84 13.19 25.82 13.2H25.81C25.55 13.28 25.3 13.42 25.1 13.64C24.54 14.24 24.56 15.19 25.13 15.78C25.74 16.4 26.73 16.41 27.34 15.79C27.56 15.57 27.69 15.31 27.76 15.04Z" fill="#50E2FF"/>
<path d="M26.1699 15.5999C26.6394 15.5999 27.0199 15.2193 27.0199 14.7499C27.0199 14.2805 26.6394 13.8999 26.1699 13.8999C25.7005 13.8999 25.3199 14.2805 25.3199 14.7499C25.3199 15.2193 25.7005 15.5999 26.1699 15.5999Z" fill="white"/>
<path d="M25.52 25.9398H23.47V22.9398C23.47 22.7498 23.63 22.5898 23.82 22.5898H25.17C25.36 22.5898 25.52 22.7498 25.52 22.9398V25.9398V25.9398Z" fill="#533566"/>
<path d="M22.5091 25.5C22.5182 25.1 22.837 24.75 23.2105 24.75H26.2075C26.6447 24.75 27 25.14 27 25.62V29.13C27 29.61 26.6447 30 26.2075 30H23.2105C22.837 30 22.5182 29.69 22.5091 29.28C22.5 29.01 22.6184 28.77 22.8097 28.63C22.6184 28.5 22.5 28.27 22.5 28.01C22.5 27.75 22.6275 27.52 22.8097 27.39C22.6184 27.26 22.5 27.03 22.5 26.77C22.5 26.51 22.6275 26.28 22.8097 26.15C22.6275 26.01 22.5 25.77 22.5091 25.5Z" fill="#966661"/>
<path d="M22.2 8.01H23.08C23.35 8.01 23.57 7.79 23.57 7.51V6.49C23.57 6.22 23.35 6 23.08 6H6.92002C6.64002 6 6.42002 6.22 6.43002 6.49V7.52C6.43002 7.79 6.65002 8.01 6.92002 8.01H7.96997V9.99996H22.2V8.01Z" fill="#321B41"/>
<path d="M12 10.625C12 11.5225 11.2725 12.25 10.375 12.25C9.47754 12.25 8.75 11.5225 8.75 10.625C8.75 9.72754 9.47754 9 10.375 9C11.2725 9 12 9.72754 12 10.625Z" fill="#8B5C56"/>
<path d="M21.25 10.625C21.25 11.5225 20.5225 12.25 19.625 12.25C18.7275 12.25 18 11.5225 18 10.625C18 9.72754 18.7275 9 19.625 9C20.5225 9 21.25 9.72754 21.25 10.625Z" fill="#8B5C56"/>
<path d="M14.5587 3C11.7745 3 9.57117 5.40816 9.76146 8.2449L10.1521 13.9388C10.3223 15.7245 11.7044 17 13.387 17H16.6118C18.2944 17 19.6765 15.7245 19.8468 13.9388L20.2373 8.2449C20.4376 5.40816 18.2343 3 15.4401 3H14.5587V3Z" fill="#966661"/>
<path d="M18.17 8.83005C18.27 8.90005 18.38 8.94005 18.5 8.94005C18.67 8.94005 18.83 8.86005 18.94 8.73005C19.12 8.49005 19.08 8.15005 18.84 7.96005L18.8391 7.95942C18.7896 7.92218 17.9625 7.30099 16.77 7.45005C16.47 7.49005 16.25 7.76005 16.29 8.06005C16.33 8.36005 16.6 8.58005 16.9 8.54005C17.6185 8.45266 18.1108 8.78956 18.1662 8.82748C18.1678 8.82861 18.17 8.83005 18.17 8.83005Z" fill="#372128"/>
<path d="M11.2 8.72005C11.31 8.87005 11.47 8.94005 11.64 8.94005C11.76 8.94005 11.87 8.90005 11.97 8.83005C11.99 8.81005 12.49 8.44005 13.24 8.54005C13.54 8.58005 13.81 8.36005 13.85 8.06005C13.89 7.76005 13.67 7.49005 13.37 7.45005C12.1775 7.30099 11.3504 7.92218 11.3008 7.95942L11.3 7.96005C11.06 8.14005 11.02 8.48005 11.2 8.72005Z" fill="#372128"/>
<path d="M11.32 10.32C11.48 9.71001 12.03 9.26001 12.68 9.26001C13.36 9.26001 13.92 9.74001 14.05 10.39C14.08 10.53 13.96 10.66 13.82 10.66H11.59C11.41 10.66 11.28 10.49 11.32 10.32Z" fill="white"/>
<path d="M18.83 10.32C18.67 9.71001 18.12 9.26001 17.47 9.26001C16.79 9.26001 16.22 9.74001 16.1 10.39C16.07 10.53 16.19 10.66 16.33 10.66H18.56C18.74 10.66 18.87 10.49 18.83 10.32Z" fill="white"/>
<path d="M11.99 10.41C11.99 9.92002 12.39 9.52002 12.88 9.52002C13.38 9.52002 13.78 9.92002 13.78 10.42C13.78 10.5 13.77 10.58 13.74 10.66H12.02C12 10.58 11.99 10.5 11.99 10.41Z" fill="#7D4533"/>
<path d="M18.15 10.42C18.15 9.93003 17.75 9.53003 17.26 9.53003C16.77 9.53003 16.37 9.93003 16.37 10.42C16.37 10.51 16.38 10.58 16.4 10.66H18.12C18.14 10.58 18.15 10.5 18.15 10.42Z" fill="#7D4533"/>
<path d="M12.89 9.91016C13.17 9.91016 13.4 10.1402 13.4 10.4202C13.4 10.5002 13.37 10.5802 13.34 10.6602H12.44C12.4 10.5902 12.38 10.5102 12.38 10.4202C12.38 10.1402 12.61 9.91016 12.89 9.91016Z" fill="black"/>
<path d="M17.26 9.91016C16.98 9.91016 16.75 10.1402 16.75 10.4202C16.75 10.5002 16.77 10.5802 16.81 10.6602H17.71C17.75 10.5902 17.77 10.5102 17.77 10.4202C17.77 10.1402 17.54 9.91016 17.26 9.91016Z" fill="black"/>
<path d="M12.74 10.0702C12.74 10.1585 12.6684 10.2302 12.58 10.2302C12.4917 10.2302 12.42 10.1585 12.42 10.0702C12.42 9.98179 12.4917 9.91016 12.58 9.91016C12.6684 9.91016 12.74 9.98179 12.74 10.0702Z" fill="white"/>
<path d="M17.1399 10.0702C17.1399 10.1585 17.0683 10.2302 16.9799 10.2302C16.8916 10.2302 16.8199 10.1585 16.8199 10.0702C16.8199 9.98179 16.8916 9.91016 16.9799 9.91016C17.0683 9.91016 17.1399 9.98179 17.1399 10.0702Z" fill="white"/>
<path d="M20.1698 4.27896L19.7561 4.06996C19.4605 3.92068 19.1847 3.72164 18.9582 3.48278L18.1406 2.6667C17.5299 2.04967 16.6236 1.84067 15.806 2.12929C15.2741 2.31838 14.7028 2.31838 14.1709 2.12929C13.4616 1.93024 12.5849 1.91034 12.0235 2.47761L11.0286 3.48278C10.802 3.72164 10.5262 3.92068 10.2307 4.06996L9.81697 4.27896C9.04863 4.66709 8.62506 5.52298 8.78267 6.36892L9.34415 9.44414C9.40325 9.75266 9.65936 9.97161 9.96472 9.98156C9.96472 9.98156 9.90562 9.10577 9.86622 8.54845C9.84652 8.25983 9.96472 7.98117 10.1716 7.78213L10.3489 7.62289C10.5951 7.39399 10.7429 7.07552 10.7429 6.73715V5.88126C10.7429 5.63246 10.9104 5.42346 11.1468 5.36375C11.7772 5.20451 13.1267 4.9358 14.9983 4.9358C16.8699 4.9358 18.2194 5.20451 18.8498 5.36375C19.0862 5.42346 19.2537 5.63246 19.2537 5.88126V6.7471C19.2537 7.08547 19.3916 7.40394 19.6477 7.63284L19.8447 7.81198C20.0614 8.00108 20.1698 8.28969 20.1501 8.5783C20.1107 9.13562 20.0516 10.0015 20.0516 10.0015C20.3569 9.98156 20.6032 9.76261 20.6623 9.46405L21.2238 6.38882C21.3617 5.52298 20.948 4.66709 20.1698 4.27896Z" fill="#2D242D"/>
<path d="M14.6541 10.2897L14.1583 12.0282C14.0554 12.384 14.2986 12.75 14.6447 12.75H15.3743C15.7204 12.75 15.9636 12.384 15.8607 12.0282L15.365 10.2897C15.2621 9.90342 14.7663 9.90342 14.6541 10.2897Z" fill="#75443E"/>
<path d="M15.0005 13.7057C14.45 13.7057 13.9301 13.5669 13.4918 13.3212C13.3389 13.2358 13.186 13.4174 13.2777 13.5669C13.6447 14.1542 14.2767 14.5493 15.0005 14.5493C15.7243 14.5493 16.3563 14.1542 16.7233 13.5669C16.8151 13.4174 16.652 13.2465 16.5093 13.3212C16.0607 13.5669 15.551 13.7057 15.0005 13.7057Z" fill="#990838"/>
<path d="M21.56 4.66992H9.30005V7.31992H21.56V4.66992Z" fill="#321B41"/>
<path d="M7.97 10.0002C8.18 9.53021 9.95 5.94021 15 5.94021C20.6 5.94021 22.04 10.0002 22.04 10.0002H22.51C22.78 10.0002 22.99 9.78021 22.99 9.52021V6.28021C22.99 4.36623 21.7337 2.74824 20 2.20502L18.72 2.25016H11.27L10 2.19727C8.2611 2.73202 7 4.35256 7 6.27021V9.51021C7 9.78021 7.21 10.0002 7.48 10.0002H7.97Z" fill="#533566"/>
<path d="M20.97 7.60994C20.31 6.97994 19.53 6.47994 18.66 6.11994C17.57 5.66994 16.34 5.43994 15 5.43994C13.78 5.43994 12.64 5.63994 11.62 6.03994C10.78 6.36994 10.01 6.82994 9.33997 7.41994C8.17997 8.41994 7.64997 9.48994 7.50997 9.78994C7.47997 9.85994 7.46997 9.92994 7.46997 9.99994H7.47997H7.96997C8.17997 9.52994 9.94997 5.93994 15 5.93994C20.6 5.93994 22.04 9.99994 22.04 9.99994H22.51C22.52 9.99994 22.53 9.99994 22.54 9.99994C22.54 9.93994 22.53 9.88994 22.51 9.82994C22.5 9.77994 22.1 8.68994 20.97 7.60994Z" fill="#8D65C5"/>
<path d="M13.98 4.37L16.5 3.5L16.43 2H11.27C10.83 2 10.4 2.07 10 2.19V3.81C10 4.12 10.25 4.37 10.56 4.37H13.98Z" fill="#B4F6FC"/>
<path d="M16.43 2L13.98 4.37H19.43C19.74 4.37 20 4.12 20 3.81V2.19C19.6 2.07 19.16 2 18.72 2H16.43Z" fill="#26EAFC"/>
</svg>

<svg xmlns="http://www.w3.org/2000/svg" width="32" height="32" fill="none"><path fill="#0084CE" d="M8 18.016a11.001 11.001 0 0 1 3-1.765L15 16l4 .248a10.979 10.979 0 0 1 3 1.763L23.5 24 22 30H8l-1.5-6L8 18.016Z"/><path fill="#0074BA" d="m15 19.35-3.12 2.19c-.37.26-.88 0-.88-.46v-4.829a10.981 10.981 0 0 1 4.005-.751c1.41 0 2.757.265 3.995.748v4.832c0 .46-.51.72-.88.46L15 19.35ZM22 18.011V30h4v-3.5c0-3.42-1.557-6.472-4-8.489ZM8 30V18.016A10.974 10.974 0 0 0 4 26.5V30h4Z"/><path fill="#E6E6E6" d="m15.896 19.346-.63.554a.404.404 0 0 1-.532 0l-.63-.554A3.274 3.274 0 0 1 13 16.91v-2.952c.01-1.08.9-1.958 2.005-1.958 1.104 0 1.995.879 1.995 1.968v2.951a3.289 3.289 0 0 1-1.104 2.427Z"/><path fill="#8B5C56" d="M15 18c-1.107 0-2-.965-2-2.162v-2.687c0-1.185.893-2.151 2-2.151s2 .966 2 2.162v2.687C16.99 17.035 16.097 18 15 18ZM26 23c.55 0 1 .41 1 .912V26h-2v-2.088c.01-.502.45-.912 1-.912Z"/><path fill="#D3D3D3" d="m26.71 14.92-.71-.71-1.42 1.42c-.38.38-.59.89-.59 1.42v6.54h1v-6.74c0-.14.05-.27.15-.37l1.57-1.56Z"/><path fill="#50E2FF" d="m27.76 15.04.47-1.8a.437.437 0 0 0-.53-.53l-1.81.47c-.02.01-.05.01-.07.02h-.01c-.26.08-.51.22-.71.44-.56.6-.54 1.55.03 2.14.61.62 1.6.63 2.21.01.22-.22.35-.48.42-.75Z"/><path fill="#fff" d="M26.17 15.6a.85.85 0 1 0 0-1.7.85.85 0 0 0 0 1.7Z"/><path fill="#533566" d="M25.52 25.94h-2.05v-3c0-.19.16-.35.35-.35h1.35c.19 0 .35.16.35.35v3Z"/><path fill="#966661" d="M22.51 25.5c.008-.4.327-.75.7-.75h2.997c.438 0 .793.39.793.87v3.51c0 .48-.355.87-.793.87H23.21c-.373 0-.692-.31-.7-.72-.01-.27.108-.51.3-.65a.74.74 0 0 1-.31-.62c0-.26.128-.49.31-.62a.74.74 0 0 1-.31-.62c0-.26.128-.49.31-.62a.79.79 0 0 1-.3-.65Z"/><path fill="#321B41" d="M22.2 8.01h.88c.27 0 .49-.22.49-.5V6.49a.49.49 0 0 0-.49-.49H6.92c-.28 0-.5.22-.49.49v1.03c0 .27.22.49.49.49h1.05V10H22.2V8.01Z"/><path fill="#8B5C56" d="M12 10.625a1.625 1.625 0 1 1-3.25 0 1.625 1.625 0 0 1 3.25 0ZM21.25 10.625a1.625 1.625 0 1 1-3.25 0 1.625 1.625 0 0 1 3.25 0Z"/><path fill="#966661" d="M14.559 3C11.775 3 9.57 5.408 9.76 8.245l.391 5.694c.17 1.786 1.552 3.061 3.235 3.061h3.225c1.682 0 3.065-1.275 3.235-3.061l.39-5.694C20.437 5.408 18.234 3 15.44 3h-.881Z"/><path fill="#372128" d="M18.17 8.83c.1.07.21.11.33.11.17 0 .33-.08.44-.21.18-.24.14-.58-.1-.77a2.976 2.976 0 0 0-2.07-.51.55.55 0 0 0 .13 1.09c.719-.087 1.21.25 1.266.287l.004.003ZM11.2 8.72c.11.15.27.22.44.22.12 0 .23-.04.33-.11.02-.02.52-.39 1.27-.29a.55.55 0 0 0 .13-1.09c-1.192-.149-2.02.472-2.07.51-.24.18-.28.52-.1.76Z"/><path fill="#fff" d="M11.32 10.32c.16-.61.71-1.06 1.36-1.06.68 0 1.24.48 1.37 1.13.03.14-.09.27-.23.27h-2.23c-.18 0-.31-.17-.27-.34ZM18.83 10.32c-.16-.61-.71-1.06-1.36-1.06-.68 0-1.25.48-1.37 1.13-.03.14.09.27.23.27h2.23c.18 0 .31-.17.27-.34Z"/><path fill="#7D4533" d="M11.99 10.41a.896.896 0 0 1 1.79.01c0 .08-.01.16-.04.24h-1.72c-.02-.08-.03-.16-.03-.25ZM18.15 10.42c0-.49-.4-.89-.89-.89a.892.892 0 0 0-.86 1.13h1.72c.02-.08.03-.16.03-.24Z"/><path fill="#000" d="M12.89 9.91c.28 0 .51.23.51.51 0 .08-.03.16-.06.24h-.9a.512.512 0 0 1 .45-.75ZM17.26 9.91a.512.512 0 0 0-.45.75h.9a.512.512 0 0 0-.45-.75Z"/><path fill="#fff" d="M12.74 10.07a.16.16 0 1 1-.32 0 .16.16 0 0 1 .32 0ZM17.14 10.07a.16.16 0 1 1-.32 0 .16.16 0 0 1 .32 0Z"/><path fill="#2D242D" d="m20.17 4.279-.414-.209a2.914 2.914 0 0 1-.798-.587l-.817-.816a2.233 2.233 0 0 0-2.335-.538c-.532.19-1.103.19-1.635 0-.71-.199-1.586-.219-2.147.349l-.995 1.005a2.917 2.917 0 0 1-.798.587l-.414.209a1.948 1.948 0 0 0-1.034 2.09l.561 3.075c.06.309.315.528.62.538 0 0-.058-.876-.098-1.434a.977.977 0 0 1 .306-.766l.177-.16c.246-.228.394-.546.394-.885v-.856c0-.249.167-.458.404-.517.63-.16 1.98-.428 3.851-.428 1.872 0 3.221.269 3.852.428.236.06.404.268.404.517v.866c0 .338.138.657.394.886l.197.179c.216.19.325.478.305.766-.04.558-.098 1.424-.098 1.424a.663.663 0 0 0 .61-.538l.562-3.075c.138-.866-.276-1.722-1.054-2.11Z"/><path fill="#75443E" d="m14.654 10.29-.496 1.738c-.103.356.14.722.487.722h.73c.345 0 .589-.366.486-.722l-.496-1.738c-.103-.387-.599-.387-.71 0Z"/><path fill="#990838" d="M15 13.706c-.55 0-1.07-.14-1.508-.385-.153-.085-.306.096-.214.246.367.587.999.982 1.723.982.723 0 1.355-.395 1.722-.982.092-.15-.071-.32-.214-.246a3.118 3.118 0 0 1-1.508.385Z"/><path fill="#321B41" d="M21.56 4.67H9.3v2.65h12.26V4.67Z"/><path fill="#533566" d="M7.97 10c.21-.47 1.98-4.06 7.03-4.06 5.6 0 7.04 4.06 7.04 4.06h.47c.27 0 .48-.22.48-.48V6.28A4.27 4.27 0 0 0 20 2.205l-1.28.045h-7.45L10 2.197A4.258 4.258 0 0 0 7 6.27v3.24c0 .27.21.49.48.49h.49Z"/><path fill="#8D65C5" d="M20.97 7.61a7.456 7.456 0 0 0-2.31-1.49c-1.09-.45-2.32-.68-3.66-.68-1.22 0-2.36.2-3.38.6-.84.33-1.61.79-2.28 1.38-1.16 1-1.69 2.07-1.83 2.37-.03.07-.04.14-.04.21h.5c.21-.47 1.98-4.06 7.03-4.06 5.6 0 7.04 4.06 7.04 4.06h.5c0-.06-.01-.11-.03-.17-.01-.05-.41-1.14-1.54-2.22Z"/><path fill="#B4F6FC" d="m13.98 4.37 2.52-.87-.07-1.5h-5.16c-.44 0-.87.07-1.27.19v1.62c0 .31.25.56.56.56h3.42Z"/><path fill="#26EAFC" d="m16.43 2-2.45 2.37h5.45c.31 0 .57-.25.57-.56V2.19c-.4-.12-.84-.19-1.28-.19h-2.29Z"/></svg>
